X: 40226
T: Tip The Bottle
R: reel
M: 4/4
K: Adorian
|:Aeed ecAc|eAce fdgf|gBB2 BABc|BEE2B2cB|
Aeed ecAc|eAce c3d|dBAB GBAB|Eeee edcB:|
|:ABcd eaa2|egab agec|dggf gdBc|dgfg bagf|
edcd eaa2|egab agec|dBAB GBAB|Eeee edcB:|

